X:1
T:We Praise Thee, 11.11.11.11
T:We Praise Thee, 11.11.11.11
T:William Howard Doane, 1893
T:Public Domain Courtesy of the Cyber Hymnal™
C:William Howard Doane, 1893
Z:Public Domain
Z:Courtesy of the Cyber Hymnal™
%%score ( 1 2 ) ( 3 4 )
L:1/8
M:3/4
K:Ab
V:1 treble 
V:2 treble 
V:3 bass 
V:4 bass 
V:1
 [CE]2 | [Ec]2 [CA]2 E2 | [DF]2 [FA]2 [DF]2 | [CE]2 [EA]2 [Ec]2 | [EB]4 E2 | [Ec]2 [EA]2 E2 | %6
 [DF]2 [FA]2 [Fd]2 | c3 B [EA][DG] | [CA]4 [EA]2 | [EB]2 [EB]2 (cB) | [EB]2 [EA]2 [Ac]2 | %11
 [Ae]2 [Ac]2 [EA]2 | [EB]4 E2 | [Ec]2 [EA]2 E2 | [DF]2 [FA]2 [Fd]2 | (c3 B) [EA][EG] | [EA]4 |] %17
V:2
 x2 | x4 E2 | x6 | x6 | x4 E2 | x4 E2 | x6 | E4 x2 | x6 | x4 G2 | x6 | x6 | x4 E2 | x4 E2 | x6 | %15
 E4 x2 | x4 |] %17
V:3
 [A,,A,]2 | [A,,A,]2 [A,,A,]2 [C,A,]2 | [D,A,]2 [D,D]2 [D,A,]2 | [E,A,]2 [C,A,]2 [A,,A,]2 | %4
 [E,G,]4 [E,G,]2 | [A,,A,]2 [A,,C]2 [C,A,]2 | [D,A,]2 [D,D]2 [D,A,]2 | A,3 D [E,C][E,B,] | %8
 [A,,A,]4 [C,A,]2 | (G,B,) [E,D]2 [E,D]2 | [A,D]2 [A,C]2 [A,E]2 | [A,C]2 [A,E]2 [C,A,]2 | %12
 [E,G,]4 [E,G,]2 | [A,,A,]2 [A,,C]2 [C,A,]2 | [D,A,]2 [D,D]2 [D,A,]2 | (A,3 D) [E,C][E,B,] | %16
 [A,,C]4 |] %17
V:4
 x2 | x6 | x6 | x6 | x6 | x6 | x6 | E,4 x2 | x6 | E,2 x4 | x6 | x6 | x6 | x6 | x6 | E,4 x2 | x4 |] %17

